assets/icons/librescoot-main-battery-blank.svg

<svg xmlns="http://www.w3.org/2000/svg" width="144" height="144" fill="none" viewBox="0 0 144 144"><path fill="#fff" fill-rule="evenodd" d="M99.8506 20H114l.31.0039C120.794 20.1681 126 25.4761 126 32c0 .1639-.004.327-.011.4893.007.1694.011.3396.011.5107v85l-.004.336c-.175 6.913-5.747 12.485-12.66 12.66L113 131H31l-.3359-.004c-6.9129-.175-12.4849-5.747-12.6602-12.66L18 118V33c0-.1711.0042-.3413.0107-.5107A12 12 0 0 1 18 32c0-6.5239 5.2061-11.8319 11.6904-11.9961L30 20h14.1494L54.8057 9h34.3886zM118 43.3125a11.96 11.96 0 0 1-3.69.6836L114 44H30l-.3096-.0039c-1.2917-.0327-2.5312-.2737-3.6904-.6836V118c0 2.761 2.2386 5 5 5h82c2.761 0 5-2.239 5-5zM31 28c-2.5817 0-4.707 1.9565-4.9727 4.4678C26.259 34.4565 27.9491 36 30 36h84c2.051 0 3.74-1.5436 3.972-3.5322C117.706 29.9566 115.582 28 113 28h-8.968l-3.905 3.7832L96.4619 28H47.5381l-3.6651 3.7832L39.9678 28zm24.2881-8h33.4238l-2.9062-3H58.1943z" clip-rule="evenodd"/></svg>

<svg width="144" height="144" viewBox="0 0 144 144" fill="none" xmlns="http://www.w3.org/2000/svg">
<path fill-rule="evenodd" clip-rule="evenodd" d="M99.8506 20H114L114.31 20.0039C120.794 20.1681 126 25.4761 126 32C126 32.1639 125.996 32.327 125.989 32.4893C125.996 32.6587 126 32.8289 126 33V118L125.996 118.336C125.821 125.249 120.249 130.821 113.336 130.996L113 131H31L30.6641 130.996C23.7512 130.821 18.1792 125.249 18.0039 118.336L18 118V33C18 32.8289 18.0042 32.6587 18.0107 32.4893C18.0042 32.327 18 32.1639 18 32C18 25.4761 23.2061 20.1681 29.6904 20.0039L30 20H44.1494L54.8057 9H89.1943L99.8506 20ZM118 43.3125C116.841 43.7224 115.601 43.9634 114.31 43.9961L114 44H30L29.6904 43.9961C28.3987 43.9634 27.1592 43.7224 26 43.3125V118C26 120.761 28.2386 123 31 123H113C115.761 123 118 120.761 118 118V43.3125ZM31 28C28.4183 28 26.293 29.9565 26.0273 32.4678C26.259 34.4565 27.9491 36 30 36H114C116.051 36 117.74 34.4564 117.972 32.4678C117.706 29.9566 115.582 28 113 28H104.032L100.127 31.7832L96.4619 28H47.5381L43.873 31.7832L39.9678 28H31ZM55.2881 20H88.7119L85.8057 17H58.1943L55.2881 20Z" fill="white"/>
</svg>
